apps/web/public/images/new-landing/logos/wix.svg

<svg fill="none" height="26" viewBox="0 0 67 26" width="67" xmlns="http://www.w3.org/2000/svg"><path d="m38.073.496082c-1.3301.704928-1.8089 1.868738-1.8089 5.087488 0 0 .6717-.64508 1.6593-1.00752.6088-.22072 1.1823-.52875 1.7025-.91442 1.1239-.82131 1.2801-1.86874 1.2801-3.6443668 0 0-1.8388-.0532054-2.833.4788188zm-7.8108.761458c-1.064.951-1.3899 2.45729-1.3899 2.45729l-3.5845 13.76947-2.9561-11.2889c-.2893-1.18043-.818-2.68673-1.6459-3.68095-1.0308-1.25691-3.139-1.33339-3.3751-1.33339-.2261 0-2.3575.07649-3.4116 1.35334-.8179 1.00753-1.35 2.49719-1.6393 3.68427l-2.95602 11.28893-3.54461-13.78944s-.30592-1.52625-1.38992-2.45729c-1.759-1.546197-4.36925-1.2203308-4.36925-1.2203308l6.80991 25.8164608s2.25113.1729 3.37499-.4189c1.4664-.7449 2.1913-1.3334 3.0891-4.8647.8014-3.1257 3.0326-12.31641 3.2387-12.98476.0964-.32587.2328-1.10396.8014-1.10396.5952 0 .7116.76146.8013 1.10396.2128.6484 2.4241 9.85906 3.2454 12.98476.8911 3.508 1.5994 4.0799 3.0891 4.8647 1.1239.5918 3.375.4189 3.375.4189l6.8099-25.7998378c-.0067 0-2.6236-.3291902-4.3726 1.2003778zm10.6438 2.99264s-.4289.64841-1.3965 1.22033c-.6252.34582-1.2204.59188-1.8688.90112-1.074.51207-1.3766 1.10395-1.3766 1.97847v17.5103s1.7358.2094 2.8397-.3459c1.4498-.7381 1.7723-1.4464 1.7989-4.6685zm16.9982 8.75182 8.6421-12.884983s-3.6444-.628454-5.4566 1.027473c-1.1638 1.04742-2.4539 2.94276-2.4539 2.94276l-3.1656 4.60866c-.1762.22944-.3458.49877-.665.49877-.3292 0-.5354-.24938-.6717-.49877l-3.1988-4.59536s-1.2802-1.88869-2.4606-2.93943c-1.7956-1.659256-5.4566-1.030803-5.4566-1.030803l8.6554 12.851683-8.6554 12.8285s3.8106.4954 5.6129-1.1638c1.1638-1.0475 2.2877-2.7832 2.2877-2.7832l3.1589-4.5987c.1762-.2261.3458-.4888.665-.4888.3325 0 .5354.2494.6717.4888l3.1655 4.5987s1.1805 1.6958 2.3276 2.7832c1.789 1.6592 5.5431 1.1638 5.5431 1.1638z" fill="#606060"/></svg>

<svg width="67" height="26" viewBox="0 0 67 26" fill="none" xmlns="http://www.w3.org/2000/svg">
<path d="M38.073 0.496082C36.7429 1.20101 36.2641 2.36482 36.2641 5.58357C36.2641 5.58357 36.9358 4.93849 37.9234 4.57605C38.5322 4.35533 39.1057 4.0473 39.6259 3.66163C40.7498 2.84032 40.906 1.79289 40.906 0.0172632C40.906 0.0172632 39.0672 -0.0359422 38.073 0.496082ZM30.2622 1.25754C29.1982 2.20854 28.8723 3.71483 28.8723 3.71483L25.2878 17.4843L22.3317 6.1954C22.0424 5.01497 21.5137 3.50867 20.6858 2.51445C19.655 1.25754 17.5468 1.18106 17.3107 1.18106C17.0846 1.18106 14.9532 1.25755 13.8991 2.5344C13.0812 3.54193 12.5491 5.03159 12.2598 6.21867L9.30378 17.5076L5.75917 3.71816C5.75917 3.71816 5.45325 2.19191 4.36925 1.26087C2.61025 -0.285327 0 0.0405392 0 0.0405392L6.80991 25.857C6.80991 25.857 9.06104 26.0299 10.1849 25.4381C11.6513 24.6932 12.3762 24.1047 13.274 20.5734C14.0754 17.4477 16.3066 8.25699 16.5127 7.58864C16.6091 7.26277 16.7455 6.48468 17.3141 6.48468C17.9093 6.48468 18.0257 7.24614 18.1154 7.58864C18.3282 8.23704 20.5395 17.4477 21.3608 20.5734C22.2519 24.0814 22.9602 24.6533 24.4499 25.4381C25.5738 26.0299 27.8249 25.857 27.8249 25.857L34.6348 0.0571622C34.6281 0.0571622 32.0112 -0.272028 30.2622 1.25754ZM40.906 4.25018C40.906 4.25018 40.4771 4.89859 39.5095 5.47051C38.8843 5.81633 38.2891 6.06239 37.6407 6.37163C36.5667 6.8837 36.2641 7.47558 36.2641 8.3501V25.8604C36.2641 25.8604 37.9999 26.0698 39.1038 25.5145C40.5536 24.7764 40.8761 24.0681 40.9027 20.846L40.906 4.25018ZM57.9042 13.002L66.5463 0.117017C66.5463 0.117017 62.9019 -0.511437 61.0897 1.14449C59.9259 2.19191 58.6358 4.08725 58.6358 4.08725L55.4702 8.69591C55.294 8.92535 55.1244 9.19468 54.8052 9.19468C54.476 9.19468 54.2698 8.9453 54.1335 8.69591L50.9347 4.10055C50.9347 4.10055 49.6545 2.21186 48.4741 1.16112C46.6785 -0.498136 43.0175 0.130317 43.0175 0.130317L51.6729 12.982L43.0175 25.8105C43.0175 25.8105 46.8281 26.3059 48.6304 24.6467C49.7942 23.5992 50.9181 21.8635 50.9181 21.8635L54.077 17.2648C54.2532 17.0387 54.4228 16.776 54.742 16.776C55.0745 16.776 55.2774 17.0254 55.4137 17.2648L58.5792 21.8635C58.5792 21.8635 59.7597 23.5593 60.9068 24.6467C62.6958 26.3059 66.4499 25.8105 66.4499 25.8105L57.9042 13.002Z" fill="#606060" style="fill:#606060;fill-opacity:1;"/>
</svg>
